X:2
T:Sunset over Foula
C:Ronnie Cooper
F:http/www.thesession.org/tunes/display/7348 2009-5-31
D:Iain Anderson "Silver Strings", track 1
M:3/4
L:1/8
R:waltz
K:D
A2 |\
d4 e2 | d4 F2 | A6 | F4 A2 | B4 c2 | d4 F2 | A6- | A4 A2 |
f4 g2 | f4 e2 | d6 | A4 d2 | B4 c2 | d4 (3FGF | E6- | E4 ||
A2 |\
d4 e2 | d4 F2 | A6 | F4 A2 | B4 c2 | d4 F2 | A6- | A4 A2 |
f4 g2 | f4 e2 | d6 | B4 d2 | A4 d2 | f4 e2 | d6- | d4 |]
